symbols/web/person_add_disabled/materialsymbolsrounded/person_add_disabled_wght100_20px.svg

<svg xmlns="http://www.w3.org/2000/svg" height="20" width="20"><path d="M15.479 17.438 13.062 15q.084.062.073.115-.01.052-.031.052H2.312q-.27 0-.468-.198t-.198-.469v-.479q0-.479.281-.875t.781-.604q1.104-.5 2.282-.771 1.177-.271 2.302-.271.666 0 1.333.094.667.094 1.375.323L7.375 9.292q0 .02-.031.02h-.073q-.979 0-1.615-.635-.635-.635-.635-1.615V7.01q0-.031.021-.031L2.271 4.208q-.104-.104-.125-.239-.021-.136.104-.261t.24-.125q.114 0 .239.125l13.229 13.23q.104.104.115.239.01.135-.115.261-.125.124-.239.124-.115 0-.24-.124Zm.083-6.313q-.124 0-.229-.104-.104-.104-.104-.229V8.667h-2.125q-.125 0-.229-.105-.104-.104-.104-.229t.104-.229Q12.979 8 13.104 8h2.125V5.875q0-.125.104-.229.105-.104.229-.104.126 0 .23.104.104.104.104.229V8h2.125q.125 0 .229.104.104.104.104.229t-.104.229q-.104.105-.229.105h-2.125v2.125q0 .125-.104.229-.104.104-.23.104ZM9.396 7.896l-.584-.584q.021-.083.032-.166.01-.084.01-.167-.021-.604-.458-1.041-.438-.438-1.042-.459-.083 0-.166.011-.084.01-.167.031l-.583-.583q.187-.063.374-.094.188-.032.459-.032.979 0 1.614.636.636.635.636 1.614 0 .25-.031.438-.032.188-.094.396ZM2.312 14.5h9.917v-.333L11 12.938q-.896-.396-1.812-.584-.917-.187-1.896-.187-1.104 0-2.177.26-1.073.261-2.073.698-.375.187-.552.396-.178.208-.178.5Zm6.5-7.188Zm-1.541 4.855Z"/></svg>

<svg xmlns="http://www.w3.org/2000/svg" height="20" width="20"><path d="M15.479 17.438 13.062 15Q13.146 15.062 13.135 15.115Q13.125 15.167 13.104 15.167H2.312Q2.042 15.167 1.844 14.969Q1.646 14.771 1.646 14.5V14.021Q1.646 13.542 1.927 13.146Q2.208 12.75 2.708 12.542Q3.812 12.042 4.99 11.771Q6.167 11.5 7.292 11.5Q7.958 11.5 8.625 11.594Q9.292 11.688 10 11.917L7.375 9.292Q7.375 9.312 7.344 9.312Q7.312 9.312 7.271 9.312Q6.292 9.312 5.656 8.677Q5.021 8.042 5.021 7.062Q5.021 7.042 5.021 7.01Q5.021 6.979 5.042 6.979L2.271 4.208Q2.167 4.104 2.146 3.969Q2.125 3.833 2.25 3.708Q2.375 3.583 2.49 3.583Q2.604 3.583 2.729 3.708L15.958 16.938Q16.062 17.042 16.073 17.177Q16.083 17.312 15.958 17.438Q15.833 17.562 15.719 17.562Q15.604 17.562 15.479 17.438ZM15.562 11.125Q15.438 11.125 15.333 11.021Q15.229 10.917 15.229 10.792V8.667H13.104Q12.979 8.667 12.875 8.562Q12.771 8.458 12.771 8.333Q12.771 8.208 12.875 8.104Q12.979 8 13.104 8H15.229V5.875Q15.229 5.75 15.333 5.646Q15.438 5.542 15.562 5.542Q15.688 5.542 15.792 5.646Q15.896 5.75 15.896 5.875V8H18.021Q18.146 8 18.25 8.104Q18.354 8.208 18.354 8.333Q18.354 8.458 18.25 8.562Q18.146 8.667 18.021 8.667H15.896V10.792Q15.896 10.917 15.792 11.021Q15.688 11.125 15.562 11.125ZM9.396 7.896 8.812 7.312Q8.833 7.229 8.844 7.146Q8.854 7.062 8.854 6.979Q8.833 6.375 8.396 5.938Q7.958 5.5 7.354 5.479Q7.271 5.479 7.188 5.49Q7.104 5.5 7.021 5.521L6.438 4.938Q6.625 4.875 6.812 4.844Q7 4.812 7.271 4.812Q8.25 4.812 8.885 5.448Q9.521 6.083 9.521 7.062Q9.521 7.312 9.49 7.5Q9.458 7.688 9.396 7.896ZM2.312 14.5H12.229V14.167L11 12.938Q10.104 12.542 9.188 12.354Q8.271 12.167 7.292 12.167Q6.188 12.167 5.115 12.427Q4.042 12.688 3.042 13.125Q2.667 13.312 2.49 13.521Q2.312 13.729 2.312 14.021ZM8.812 7.312Q8.812 7.312 8.812 7.312Q8.812 7.312 8.812 7.312Q8.812 7.312 8.812 7.312Q8.812 7.312 8.812 7.312Q8.812 7.312 8.812 7.312Q8.812 7.312 8.812 7.312ZM7.271 12.167Q7.271 12.167 7.271 12.167Q7.271 12.167 7.271 12.167Q7.271 12.167 7.271 12.167Q7.271 12.167 7.271 12.167Q7.271 12.167 7.271 12.167Q7.271 12.167 7.271 12.167Z"/></svg>
